build/images/content/features/icon_7.svg

<svg width="70" height="70" viewBox="0 0 70 70" fill="none" xmlns="http://www.w3.org/2000/svg">
<path d="M65.4883 58.1778L56.7772 40.7556C59.5772 36.5556 61.2883 31.5778 61.2883 26.1333C61.2883 11.8222 49.6216 0 35.1549 0C20.6883 0 8.86604 11.8222 8.86604 26.2889C8.86604 31.7333 10.5772 36.7111 13.3772 40.9111L4.66604 58.1778C4.35493 58.8 4.35493 59.5778 4.8216 60.2C5.13271 60.8222 5.91049 61.1333 6.53271 61.1333H16.4883L22.3994 69.0667C22.866 69.5333 23.3327 69.8444 24.1105 69.8444C24.8883 69.8444 25.666 69.3778 25.9772 68.7556L34.2216 52.4222C34.5327 52.4222 34.8438 52.4222 35.1549 52.4222C35.466 52.4222 35.7772 52.4222 36.0883 52.4222L44.3327 68.9111C44.6438 69.5333 45.266 70 46.1994 70C46.8216 70 47.4438 69.6889 47.9105 69.2222L53.8216 61.2889H63.7772C64.5549 61.2889 65.1772 60.9778 65.4883 60.3556C65.7994 59.5778 65.7994 58.9556 65.4883 58.1778ZM23.7994 64.0889L19.1327 58.0222C18.8216 57.5556 18.1994 57.2444 17.4216 57.2444H9.95493L16.3327 44.4889C19.9105 48.2222 24.7327 50.8667 30.0216 51.9556L23.7994 64.0889ZM35.1549 48.3778C23.0216 48.3778 13.066 38.4222 13.066 26.2889C13.066 14 22.866 4.04444 35.1549 4.04444C47.4438 4.04444 57.2438 14 57.2438 26.2889C57.2438 38.4222 47.2883 48.3778 35.1549 48.3778ZM52.7327 57.0889C52.1105 57.0889 51.4883 57.4 51.0216 57.8667L46.3549 63.9333L40.4438 51.9556C45.7327 50.8667 50.3994 48.2222 54.1327 44.4889L60.5105 57.2444L52.7327 57.0889Z" fill="#4283D0"/>
<path d="M47.7556 19.1335H42.3112V13.8447C42.3112 11.8224 40.6 10.1113 38.5778 10.1113H31.7334C29.7112 10.1113 28 11.8224 28 13.8447V19.1335H22.5556C20.5334 19.1335 18.8223 20.8447 18.8223 22.8669V27.6891H24.8889C25.8223 26.7558 27.0667 25.2002 27.6889 23.9558C28.4667 22.0891 29.2445 20.2224 29.4 19.4447C29.7112 15.4002 31.2667 14.4669 32.6667 14.4669H32.8223C33.7556 14.4669 34.6889 14.9336 35.3112 15.7113C36.4 16.9558 36.8667 18.978 36.5556 21.3113C36.4 21.778 36.4 22.4002 36.2445 22.8669C36.2445 23.3335 36.0889 23.8002 36.0889 24.2669H39.8223H39.9778C42.1556 24.4224 44.3334 26.1336 44.3334 28.9335V33.2891H47.7556C49.7778 33.2891 51.4889 31.578 51.4889 29.5558V22.7113C51.4889 20.6891 49.7778 19.1335 47.7556 19.1335Z" fill="#4283D0"/>
<path d="M18.8223 30.022H25.8223C25.8223 30.022 28.7778 27.3776 29.8667 24.8887C30.9556 22.3998 31.8889 19.9109 31.8889 19.9109C31.8889 19.9109 32.0445 16.7998 32.9778 16.7998C33.9112 16.7998 34.8445 18.3554 34.3778 20.9998C33.9112 23.4887 33.4445 26.1331 33.7556 26.7554C33.6 26.7554 39.8223 26.7554 39.8223 26.7554C39.8223 26.7554 42 27.0665 42 28.9331C42 30.9554 42 39.822 42 39.822C42 39.822 42.3112 42.1554 40.1334 42.1554C37.9556 42.1554 30.4889 42.1554 30.4889 42.1554C30.4889 42.1554 27.8445 42.1554 27.8445 38.8887C27.8445 35.622 27.8445 33.4442 27.8445 33.4442H21.6223C21.4667 33.7554 18.8223 33.4442 18.8223 30.022Z" fill="#4283D0"/>
</svg>

<svg width="70" height="70" fill="none" xmlns="http://www.w3.org/2000/svg"><path d="M65.488 58.178l-8.71-17.422c2.8-4.2 4.51-9.178 4.51-14.623C61.288 11.823 49.622 0 35.155 0 20.688 0 8.866 11.822 8.866 26.289c0 5.444 1.711 10.422 4.511 14.622L4.666 58.178c-.311.622-.311 1.4.156 2.022.31.622 1.088.933 1.71.933h9.956l5.911 7.934c.467.466.934.777 1.711.777.778 0 1.556-.466 1.867-1.088l8.245-16.334h1.866l8.245 16.49c.31.621.933 1.088 1.866 1.088.623 0 1.245-.311 1.712-.778l5.91-7.933h9.956c.778 0 1.4-.311 1.711-.933.311-.778.311-1.4 0-2.178zM23.8 64.088l-4.666-6.066c-.311-.466-.934-.778-1.711-.778H9.955l6.378-12.755c3.578 3.733 8.4 6.378 13.689 7.467l-6.223 12.133zm11.356-15.71c-12.133 0-22.089-9.956-22.089-22.09 0-12.288 9.8-22.244 22.089-22.244 12.289 0 22.089 9.956 22.089 22.245 0 12.133-9.956 22.089-22.09 22.089zm17.578 8.71c-.622 0-1.245.312-1.711.779l-4.667 6.066-5.911-11.977c5.289-1.09 9.955-3.734 13.689-7.467l6.377 12.755-7.777-.155z" fill="#4283D0"/><path d="M47.756 19.134H42.31v-5.29c0-2.022-1.711-3.733-3.733-3.733h-6.845c-2.022 0-3.733 1.711-3.733 3.734v5.289h-5.444c-2.023 0-3.734 1.71-3.734 3.733v4.822h6.067c.933-.933 2.178-2.489 2.8-3.733.778-1.867 1.555-3.734 1.711-4.511.311-4.045 1.867-4.978 3.267-4.978h.155c.934 0 1.867.467 2.49 1.244 1.088 1.245 1.555 3.267 1.244 5.6-.156.467-.156 1.09-.311 1.556 0 .466-.156.933-.156 1.4h3.89c2.178.155 4.355 1.867 4.355 4.666v4.356h3.423c2.022 0 3.733-1.711 3.733-3.733V22.71c0-2.022-1.711-3.577-3.733-3.577z" fill="#4283D0"/><path d="M18.822 30.022h7s2.956-2.644 4.045-5.133a114.333 114.333 0 002.022-4.978s.155-3.111 1.089-3.111c.933 0 1.866 1.555 1.4 4.2-.467 2.489-.934 5.133-.622 5.755h6.066S42 27.067 42 28.933v10.889s.311 2.333-1.867 2.333H30.49s-2.645 0-2.645-3.266v-5.445h-6.222c-.155.311-2.8 0-2.8-3.422z" fill="#4283D0"/></svg>
